svgs/chart-light.svg

<svg width="400" height="400" viewBox="0 0 400 400" fill="none" xmlns="http://www.w3.org/2000/svg">
<g id="chart">
<g id="chart_2">
<path id="Path" d="M128.282 29.3382V72.6213C128.282 74.7253 129.783 76.5288 131.884 76.9295C160.397 82.0393 181.807 107.488 180.706 137.746C179.606 168.706 154.394 193.854 123.58 195.056C93.3668 196.158 68.0555 174.717 62.8531 146.263C62.4529 144.159 60.6521 142.656 58.5512 142.656H15.3318C12.7306 142.656 10.7297 144.86 11.0299 147.365C16.9325 203.472 64.5539 247.056 122.28 246.555C182.507 246.054 231.629 196.76 232.129 136.444C232.629 78.6328 189.01 30.9412 132.985 25.0299C130.483 24.7293 128.282 26.7332 128.282 29.3382Z" fill="#F0F3F5"/>
<path id="Shape" fill-rule="evenodd" clip-rule="evenodd" d="M49.9473 56.4903L80.461 87.0489C81.9617 88.5518 84.3628 88.7522 86.1636 87.4497C93.2668 82.1395 101.671 78.5326 110.775 76.8293C112.876 76.4286 114.376 74.7253 114.376 72.5211V29.3382C114.376 26.7332 112.175 24.7293 109.574 25.0299C87.164 27.4345 66.6548 36.4518 50.2475 50.1782C48.2466 51.7812 48.1465 54.6868 49.9473 56.4903ZM33.8401 67.0116C21.4345 83.0424 13.2309 102.48 11.0299 123.721C10.7297 126.225 12.8307 128.43 15.3318 128.43H58.4512C60.5521 128.43 62.3529 126.927 62.7531 124.823C64.1537 116.807 67.2551 109.293 71.557 102.78C72.6575 101.077 72.4574 98.7726 71.0568 97.2697L40.343 66.7111C38.5422 64.8074 35.4408 65.0078 33.8401 67.0116ZM149.092 251.262H205.617C208.819 251.262 211.42 253.867 211.52 257.174V369.089C211.52 372.395 208.819 375 205.617 375H149.092C145.79 375 143.189 372.295 143.189 369.089V257.174C143.189 253.867 145.89 251.262 149.092 251.262ZM282.452 297.753H226.126C222.825 297.753 220.124 300.459 220.124 303.765V368.89C220.124 372.196 222.825 374.902 226.126 374.902H282.452C285.753 374.902 288.454 372.196 288.454 368.89V303.765C288.454 300.459 285.753 297.753 282.452 297.753ZM303.361 329.115H359.186C362.588 329.115 365.389 331.92 365.389 335.327V368.591C365.389 371.997 362.588 374.803 359.186 374.803H303.361C299.96 374.803 297.158 371.997 297.158 368.591V335.327C297.158 331.92 299.96 329.115 303.361 329.115Z" fill="#F0F3F5"/>
<g id="Group">
<path id="Path (Stroke)" fill-rule="evenodd" clip-rule="evenodd" d="M47.4459 159.188C38.5465 159.188 31.2386 166.506 31.2386 175.419V301.06C31.2386 309.972 38.5465 317.291 47.4459 317.291H241.033C249.943 317.291 257.229 310.066 257.14 301.08L257.14 301.06V175.419C257.14 166.506 249.832 159.188 240.933 159.188H47.4459ZM241.033 321.299H47.4459C36.3363 321.299 27.2368 312.186 27.2368 301.06V175.419C27.2368 164.293 36.3363 155.18 47.4459 155.18H240.933C252.042 155.18 261.142 164.293 261.142 175.419V301.049C261.248 312.298 252.128 321.299 241.033 321.299Z" fill="#999999"/>
<path id="Oval" d="M48.0457 180.73C50.9189 180.73 53.2481 178.397 53.2481 175.52C53.2481 172.643 50.9189 170.31 48.0457 170.31C45.1725 170.31 42.8434 172.643 42.8434 175.52C42.8434 178.397 45.1725 180.73 48.0457 180.73Z" fill="#999999"/>
<path id="Oval_2" d="M64.9537 180.73C67.8268 180.73 70.156 178.397 70.156 175.52C70.156 172.643 67.8268 170.31 64.9537 170.31C62.0805 170.31 59.7513 172.643 59.7513 175.52C59.7513 178.397 62.0805 180.73 64.9537 180.73Z" fill="#999999"/>
<path id="Oval_3" d="M81.8618 180.73C84.7349 180.73 87.0641 178.397 87.0641 175.52C87.0641 172.643 84.7349 170.31 81.8618 170.31C78.9886 170.31 76.6594 172.643 76.6594 175.52C76.6594 178.397 78.9886 180.73 81.8618 180.73Z" fill="#999999"/>
<path id="Path (Stroke)_2" fill-rule="evenodd" clip-rule="evenodd" d="M27.5366 194.153C27.5366 193.046 28.4325 192.149 29.5375 192.149H258.54C259.645 192.149 260.541 193.046 260.541 194.153C260.541 195.26 259.645 196.157 258.54 196.157H29.5375C28.4325 196.157 27.5366 195.26 27.5366 194.153Z" fill="#999999"/>
</g>
<g id="Group_2">
<path id="Path_2" d="M327.172 280.919L110.175 292.942C102.871 293.343 96.8687 287.732 96.8687 280.418V112.696C96.8687 105.382 102.871 99.7715 110.175 100.172L327.172 112.195C332.775 112.496 337.277 117.906 337.277 124.218V268.896C337.277 275.208 332.775 280.619 327.172 280.919Z" fill="#FFD493"/>
<path id="Shape_2" fill-rule="evenodd" clip-rule="evenodd" d="M122.58 117.906C122.58 121.312 119.879 123.917 116.477 123.717C113.076 123.616 110.375 120.711 110.375 117.305C110.375 113.898 113.176 111.294 116.477 111.494C119.779 111.594 122.58 114.5 122.58 117.906ZM142.289 118.706C142.289 122.012 139.588 124.617 136.286 124.516C132.985 124.416 130.283 121.511 130.283 118.205C130.283 114.899 132.985 112.294 136.286 112.394C139.588 112.594 142.289 115.399 142.289 118.706ZM155.695 125.318C158.896 125.518 161.497 122.914 161.497 119.607C161.497 116.301 158.896 113.496 155.695 113.396C152.393 113.196 149.792 115.8 149.792 119.107C149.792 122.413 152.493 125.218 155.695 125.318Z" fill="#DD7E10"/>
<path id="Shape_3" fill-rule="evenodd" clip-rule="evenodd" d="M140.288 270.299V171.309C133.485 170.407 125.581 170.608 116.477 172.511V271.401L140.288 270.299ZM163.198 180.528V269.399L144.189 270.201V172.012C151.593 173.615 157.796 176.721 163.198 180.528ZM186.208 204.374C186.108 204.274 186.033 204.174 185.958 204.074C185.883 203.973 185.808 203.873 185.708 203.773C184.988 202.898 184.266 202.012 183.54 201.121C178.615 195.077 173.477 188.773 167.2 183.534V269.199L186.208 268.397V204.374ZM209.219 214.192C202.516 214.092 196.013 212.99 190.21 208.281V268.196L209.219 267.394V214.192ZM232.229 213.49C227.493 213.193 222.757 213.5 218.101 213.801L218.101 213.801C216.463 213.907 214.835 214.013 213.22 214.091V267.193L232.229 266.391V213.49ZM273.347 264.688L259.241 265.289V227.216C273.247 243.147 273.347 264.688 273.347 264.688ZM251.037 219.902C252.538 220.904 253.939 222.006 255.239 223.208V265.49L236.231 266.291V213.991C241.233 214.792 246.135 216.496 251.037 219.902Z" fill="#FFD493"/>
<g id="Group_3">
<path id="Path (Stroke)_3" fill-rule="evenodd" clip-rule="evenodd" d="M116.377 148.465C117.482 148.465 118.378 149.362 118.378 150.469V269.302L312.573 260.282C313.677 260.23 314.613 261.085 314.664 262.19C314.715 263.296 313.862 264.234 312.758 264.285L116.47 273.402C115.924 273.428 115.391 273.228 114.996 272.85C114.6 272.472 114.376 271.948 114.376 271.401V150.469C114.376 149.362 115.272 148.465 116.377 148.465Z" fill="#DD7E10"/>
<path id="Shape (Stroke)" fill-rule="evenodd" clip-rule="evenodd" d="M116.388 147.263C117 147.266 117.576 147.549 117.953 148.031L125.156 157.249C125.837 158.121 125.684 159.38 124.814 160.062C123.944 160.744 122.686 160.591 122.005 159.719L116.36 152.496L110.737 159.536C110.046 160.4 108.787 160.54 107.924 159.848C107.061 159.157 106.921 157.896 107.612 157.032L114.815 148.015C115.197 147.536 115.777 147.259 116.388 147.263ZM302.099 253.819C302.79 252.955 304.049 252.815 304.912 253.506L313.916 260.72C314.396 261.105 314.673 261.691 314.666 262.308C314.659 262.924 314.369 263.503 313.88 263.878L304.576 270.991C303.697 271.663 302.442 271.494 301.771 270.615C301.101 269.735 301.269 268.477 302.147 267.806L309.417 262.248L302.412 256.636C301.549 255.944 301.409 254.683 302.099 253.819Z" fill="#DD7E10"/>
</g>
<g id="Group_4">
<path id="Shape (Stroke)_2" fill-rule="evenodd" clip-rule="evenodd" d="M260.944 146.988C260.985 145.882 261.913 145.019 263.018 145.06L314.041 146.964C315.145 147.005 316.007 147.935 315.966 149.041C315.924 150.147 314.996 151.01 313.892 150.968L262.869 149.065C261.764 149.024 260.903 148.094 260.944 146.988ZM260.943 165.046C260.971 163.94 261.889 163.066 262.994 163.094L314.017 164.396C315.122 164.424 315.994 165.344 315.966 166.451C315.938 167.557 315.02 168.431 313.915 168.403L262.892 167.1C261.787 167.072 260.915 166.152 260.943 165.046ZM260.942 183.42C260.949 182.314 261.85 181.422 262.955 181.428L313.978 181.729C315.083 181.735 315.973 182.638 315.967 183.745C315.96 184.851 315.059 185.743 313.954 185.737L262.931 185.436C261.826 185.429 260.936 184.527 260.942 183.42Z" fill="#DD7E10"/>
<path id="Shape_4" fill-rule="evenodd" clip-rule="evenodd" d="M256.74 147.161C256.74 149.565 254.739 151.469 252.338 151.369C249.937 151.269 247.936 149.165 247.936 146.76C247.936 144.355 249.937 142.352 252.338 142.552C254.84 142.652 256.74 144.756 256.74 147.161ZM256.74 164.996C256.74 167.401 254.739 169.305 252.338 169.205C249.937 169.104 247.936 167 247.936 164.596C247.936 162.091 249.937 160.187 252.338 160.388C254.84 160.488 256.74 162.592 256.74 164.996ZM252.338 187.039C254.739 187.139 256.74 185.235 256.74 182.831C256.74 180.426 254.84 178.322 252.338 178.222C249.937 178.022 247.936 180.025 247.936 182.43C247.936 184.835 249.937 186.939 252.338 187.039Z" fill="#DD7E10"/>
</g>
<path id="Path_3" d="M337.277 182.629V124.117C337.277 117.805 332.775 112.394 327.172 112.094L286.654 109.89C284.753 115.701 283.653 122.013 283.653 128.726C283.653 158.984 305.563 183.331 331.774 183.03C333.575 183.13 335.476 182.93 337.277 182.629Z" fill="#DCA553" fill-opacity="0.7"/>
</g>
<g id="Group_5">
<path id="Path_4" d="M388.999 126.025C388.999 97.5706 369.09 73.2238 343.679 71.7209C317.467 70.218 295.557 93.4627 295.557 123.721C295.557 153.979 317.467 178.326 343.679 178.025C369.09 177.825 388.999 154.48 388.999 126.025Z" fill="#FFD493"/>
<path id="Path_5" d="M379.896 94.2656C371.692 81.4409 358.686 72.624 343.68 71.7223V124.924L379.896 94.2656Z" fill="#FFBE5C"/>
<path id="Path_6" d="M379.896 94.2657L343.68 124.925L389 126.027C389 114.204 385.599 103.183 379.896 94.2657V94.2657Z" fill="#FFBE5C"/>
<path id="Path_7" d="M343.779 124.923V71.7209C317.567 70.218 295.657 93.4627 295.657 123.721L343.779 124.923Z" fill="#FFD493"/>
</g>
<path id="Shape (Stroke)_3" fill-rule="evenodd" clip-rule="evenodd" d="M283.653 48.2745C284.758 48.2745 285.653 49.1717 285.653 50.2784V57.4922C285.653 58.5989 284.758 59.4961 283.653 59.4961C282.547 59.4961 281.652 58.5989 281.652 57.4922V50.2784C281.652 49.1717 282.547 48.2745 283.653 48.2745ZM266.445 65.409C266.445 64.3023 267.341 63.4051 268.446 63.4051H275.749C276.854 63.4051 277.75 64.3023 277.75 65.409C277.75 66.5157 276.854 67.4128 275.749 67.4128H268.446C267.341 67.4128 266.445 66.5157 266.445 65.409ZM289.455 65.409C289.455 64.3023 290.351 63.4051 291.456 63.4051H298.759C299.864 63.4051 300.76 64.3023 300.76 65.409C300.76 66.5157 299.864 67.4128 298.759 67.4128H291.456C290.351 67.4128 289.455 66.5157 289.455 65.409ZM283.653 70.7161C284.758 70.7161 285.653 71.6132 285.653 72.7199V80.5349C285.653 81.6416 284.758 82.5387 283.653 82.5387C282.547 82.5387 281.652 81.6416 281.652 80.5349V72.7199C281.652 71.6132 282.547 70.7161 283.653 70.7161Z" fill="#999999"/>
</g>
</g>
</svg>

<svg xmlns="http://www.w3.org/2000/svg" width="400" height="400" fill="none" viewBox="0 0 400 400"><path fill="#F0F3F5" d="M128.282 29.338v43.283c0 2.104 1.501 3.908 3.602 4.309 28.513 5.11 49.923 30.558 48.822 60.816-1.1 30.96-26.312 56.108-57.126 57.31-30.213 1.102-55.524-20.339-60.727-48.793-.4-2.104-2.2-3.607-4.302-3.607h-43.22c-2.6 0-4.601 2.204-4.301 4.709 5.903 56.107 53.524 99.691 111.25 99.19 60.227-.501 109.349-49.795 109.849-110.111.5-57.811-43.119-105.503-99.144-111.414-2.502-.3-4.703 1.703-4.703 4.308"/><path fill="#F0F3F5" fill-rule="evenodd" d="m49.947 56.49 30.514 30.56c1.5 1.503 3.902 1.703 5.703.4 7.103-5.31 15.507-8.916 24.611-10.62 2.101-.4 3.601-2.104 3.601-4.308V29.338c0-2.605-2.201-4.609-4.802-4.308-22.41 2.404-42.92 11.422-59.326 25.148-2.001 1.603-2.101 4.509-.3 6.312M33.84 67.012c-12.406 16.03-20.61 35.468-22.81 56.709-.3 2.504 1.8 4.709 4.302 4.709h43.12c2.1 0 3.9-1.503 4.301-3.607 1.4-8.016 4.502-15.53 8.804-22.043 1.1-1.703.9-4.007-.5-5.51L40.343 66.71c-1.8-1.904-4.902-1.703-6.503.3m115.252 184.25h56.525c3.202 0 5.803 2.605 5.903 5.912v111.915c0 3.306-2.701 5.911-5.903 5.911h-56.525c-3.302 0-5.903-2.705-5.903-5.911V257.174c0-3.307 2.701-5.912 5.903-5.912m133.36 46.491h-56.326c-3.301 0-6.002 2.706-6.002 6.012v65.125c0 3.306 2.701 6.012 6.002 6.012h56.326c3.301 0 6.002-2.706 6.002-6.012v-65.125c0-3.306-2.701-6.012-6.002-6.012m20.909 31.362h55.825c3.402 0 6.203 2.805 6.203 6.212v33.264c0 3.406-2.801 6.212-6.203 6.212h-55.825c-3.401 0-6.203-2.806-6.203-6.212v-33.264c0-3.407 2.802-6.212 6.203-6.212" clip-rule="evenodd"/><g fill="#999"><path fill-rule="evenodd" d="M47.446 159.188c-8.9 0-16.207 7.318-16.207 16.231V301.06c0 8.912 7.308 16.231 16.207 16.231h193.587c8.91 0 16.196-7.225 16.107-16.211V175.419c0-8.913-7.308-16.231-16.207-16.231zm193.587 162.111H47.446c-11.11 0-20.21-9.113-20.21-20.239V175.419c0-11.126 9.1-20.239 20.21-20.239h193.487c11.109 0 20.209 9.113 20.209 20.239v125.63c.106 11.249-9.014 20.25-20.109 20.25" clip-rule="evenodd"/><path d="M48.046 180.73a5.206 5.206 0 0 0 5.202-5.21c0-2.877-2.33-5.21-5.202-5.21a5.206 5.206 0 0 0-5.203 5.21c0 2.877 2.33 5.21 5.203 5.21m16.908 0a5.206 5.206 0 0 0 5.202-5.21c0-2.877-2.33-5.21-5.202-5.21a5.206 5.206 0 0 0-5.203 5.21c0 2.877 2.33 5.21 5.203 5.21m16.908 0a5.206 5.206 0 0 0 5.202-5.21c0-2.877-2.33-5.21-5.202-5.21a5.206 5.206 0 0 0-5.203 5.21c0 2.877 2.33 5.21 5.203 5.21"/><path fill-rule="evenodd" d="M27.537 194.153c0-1.107.896-2.004 2-2.004H258.54c1.105 0 2.001.897 2.001 2.004a2 2 0 0 1-2.001 2.004H29.537c-1.104 0-2-.897-2-2.004" clip-rule="evenodd"/></g><path fill="#FFD493" d="m327.172 280.919-216.997 12.023c-7.304.401-13.306-5.21-13.306-12.524V112.696c0-7.314 6.002-12.924 13.306-12.524l216.997 12.023c5.603.301 10.105 5.711 10.105 12.023v144.678c0 6.312-4.502 11.723-10.105 12.023"/><path fill="#DD7E10" fill-rule="evenodd" d="M122.58 117.906c0 3.406-2.701 6.011-6.103 5.811-3.401-.101-6.102-3.006-6.102-6.412s2.801-6.011 6.102-5.811c3.302.1 6.103 3.006 6.103 6.412m19.709.8a5.793 5.793 0 0 1-6.003 5.81c-3.301-.1-6.003-3.005-6.003-6.311a5.795 5.795 0 0 1 6.003-5.811c3.302.2 6.003 3.005 6.003 6.312m13.406 6.612c3.201.2 5.802-2.404 5.802-5.711 0-3.306-2.601-6.111-5.802-6.211-3.302-.2-5.903 2.404-5.903 5.711 0 3.306 2.701 6.111 5.903 6.211" clip-rule="evenodd"/><path fill="#FFD493" fill-rule="evenodd" d="M140.288 270.299v-98.99c-6.803-.902-14.707-.701-23.811 1.202v98.89zm22.91-89.771v88.871l-19.009.802v-98.189c7.404 1.603 13.607 4.709 19.009 8.516m23.01 23.846c-.1-.1-.175-.2-.25-.3a3 3 0 0 0-.25-.301q-1.08-1.314-2.168-2.652c-4.925-6.044-10.063-12.348-16.34-17.587v85.665l19.008-.802zm23.011 9.818c-6.703-.1-13.206-1.202-19.009-5.911v59.915l19.009-.802zm23.01-.702c-4.736-.297-9.472.01-14.128.311-1.638.106-3.266.212-4.881.29v53.102l19.009-.802zm41.118 51.198-14.106.601v-38.073c14.006 15.931 14.106 37.472 14.106 37.472m-22.31-44.786a34 34 0 0 1 4.202 3.306v42.282l-19.008.801v-52.3c5.002.801 9.904 2.505 14.806 5.911" clip-rule="evenodd"/><g fill="#DD7E10" fill-rule="evenodd" clip-rule="evenodd"><path d="M116.377 148.465c1.105 0 2.001.897 2.001 2.004v118.833l194.195-9.02a2 2 0 0 1 2.091 1.908 2.003 2.003 0 0 1-1.906 2.095l-196.288 9.117a2.004 2.004 0 0 1-2.094-2.001V150.469c0-1.107.896-2.004 2.001-2.004"/><path d="M116.388 147.263a2 2 0 0 1 1.565.768l7.203 9.218a2.006 2.006 0 0 1-.342 2.813 2 2 0 0 1-2.809-.343l-5.645-7.223-5.623 7.04a2 2 0 0 1-2.813.312 2.004 2.004 0 0 1-.312-2.816l7.203-9.017a2 2 0 0 1 1.573-.752m185.711 106.556a2 2 0 0 1 2.813-.313l9.004 7.214a2.007 2.007 0 0 1-.036 3.158l-9.304 7.113a2 2 0 0 1-2.805-.376 2.007 2.007 0 0 1 .376-2.809l7.27-5.558-7.005-5.612a2.007 2.007 0 0 1-.313-2.817"/></g><path fill="#DD7E10" fill-rule="evenodd" d="M260.944 146.988a2 2 0 0 1 2.074-1.928l51.023 1.904a2.003 2.003 0 0 1 1.925 2.077 2 2 0 0 1-2.074 1.927l-51.023-1.903a2 2 0 0 1-1.925-2.077m-.001 18.058a2 2 0 0 1 2.051-1.952l51.023 1.302a2 2 0 0 1 1.949 2.055 2 2 0 0 1-2.051 1.952l-51.023-1.303a2 2 0 0 1-1.949-2.054m-.001 18.374a2.004 2.004 0 0 1 2.013-1.992l51.023.301a2.004 2.004 0 0 1-.024 4.008l-51.023-.301a2.003 2.003 0 0 1-1.989-2.016m-4.202-36.259a4.214 4.214 0 0 1-4.402 4.208c-2.401-.1-4.402-2.204-4.402-4.609s2.001-4.408 4.402-4.208c2.502.1 4.402 2.204 4.402 4.609m0 17.835a4.214 4.214 0 0 1-4.402 4.209c-2.401-.101-4.402-2.205-4.402-4.609 0-2.505 2.001-4.409 4.402-4.208 2.502.1 4.402 2.204 4.402 4.608m-4.402 22.043a4.214 4.214 0 0 0 4.402-4.208c0-2.405-1.9-4.509-4.402-4.609-2.401-.2-4.402 1.803-4.402 4.208s2.001 4.509 4.402 4.609" clip-rule="evenodd"/><path fill="#DCA553" fill-opacity=".7" d="M337.277 182.629v-58.512c0-6.312-4.502-11.723-10.105-12.023l-40.518-2.204a60.4 60.4 0 0 0-3.001 18.836c0 30.258 21.91 54.605 48.121 54.304 1.801.1 3.702-.1 5.503-.401"/><path fill="#FFD493" d="M388.999 126.025c0-28.454-19.909-52.801-45.32-54.304-26.212-1.503-48.122 21.742-48.122 52s21.91 54.605 48.122 54.304c25.411-.2 45.32-23.545 45.32-52"/><path fill="#FFBE5C" d="M379.896 94.266c-8.204-12.825-21.21-21.642-36.216-22.544v53.202zm0 0-36.216 30.659 45.32 1.102c0-11.823-3.401-22.844-9.104-31.761"/><path fill="#FFD493" d="M343.779 124.923V71.721c-26.212-1.503-48.122 21.742-48.122 52z"/><path fill="#999" fill-rule="evenodd" d="M283.653 48.275c1.105 0 2 .897 2 2.003v7.214a2.002 2.002 0 1 1-4.001 0v-7.214c0-1.106.895-2.003 2.001-2.003m-17.208 17.134c0-1.107.896-2.004 2.001-2.004h7.303c1.105 0 2.001.897 2.001 2.004a2 2 0 0 1-2.001 2.004h-7.303a2 2 0 0 1-2.001-2.004m23.01 0c0-1.107.896-2.004 2.001-2.004h7.303c1.105 0 2.001.897 2.001 2.004a2 2 0 0 1-2.001 2.004h-7.303a2 2 0 0 1-2.001-2.004m-5.802 5.307c1.105 0 2 .897 2 2.004v7.815a2.002 2.002 0 1 1-4.001 0V72.72c0-1.107.895-2.004 2.001-2.004" clip-rule="evenodd"/></svg>
